X: 10
T: Odeno Oro
O: Macedonia
M: 6/8
L: 1/8
P: AA BB CCCC DDDD, then in fifths, then as at first - drone D throughout
K: Dm
|: D3 D2E | F2E D3 | E3 EDC | E3 EFE |\
   D3 D2E | F2E D3 | E3 EDC | D3 D3 :|
|: A3 G2A | F2E D3 | E3 EDC | E3 EFG |\
   A3 G2A | F2E D3 | E3 EDC | D3 D3 :|
|: DEC D2E | FGE FGE | DEC D2E | FGE D2A, :|
|: FGE FGE | DEC D2E | FGE FGE | DEC D2E :|
